packages/match-icons/product/svg/pay.svg

<svg fill="none" height="32" viewBox="0 0 32 32" width="32" xmlns="http://www.w3.org/2000/svg"><g fill="#394762"><path d="m6.5 14h3c.13261 0 .25979.0527.35355.1464.09377.0938.14645.221.14645.3536v1c0 .1326-.05268.2598-.14645.3536-.09376.0937-.22094.1464-.35355.1464h-3c-.13261 0-.25979-.0527-.35355-.1464-.09377-.0938-.14645-.221-.14645-.3536v-1c0-.1326.05268-.2598.14645-.3536.09376-.0937.22094-.1464.35355-.1464zm21-12h-23c-.66304 0-1.29893.26339-1.76777.73223s-.73223 1.10473-.73223 1.76777v13c0 .663.26339 1.2989.73223 1.7678.46884.4688 1.10473.7322 1.76777.7322h4.5c.26522 0 .51957-.1054.70711-.2929.18753-.1875.29289-.4419.29289-.7071s-.10536-.5196-.29289-.7071c-.18754-.1875-.44189-.2929-.70711-.2929h-4.5c-.13261 0-.25979-.0527-.35355-.1464-.09377-.0938-.14645-.221-.14645-.3536v-7.5h24v9c0 .2652.1054.5196.2929.7071s.4419.2929.7071.2929.5196-.1054.7071-.2929.2929-.4419.2929-.7071v-14.5c0-.66304-.2634-1.29893-.7322-1.76777-.4689-.46884-1.1048-.73223-1.7678-.73223zm.5 4h-24v-1.5c-.00442-.0668.00548-.13378.02905-.19645.02356-.06267.06024-.11957.10758-.16692.04735-.04734.10425-.08402.16692-.10758.06267-.02357.12965-.03347.19645-.02905h23c.0668-.00442.1338.00548.1964.02905.0627.02356.1196.06024.167.10758.0473.04735.084.10425.1076.16692.0235.06267.0334.12965.029.19645z"/><path d="m25 18h-1v-1c.0268-.6637-.0842-1.3259-.326-1.9446-.2418-.6188-.6092-1.1807-1.0789-1.6505-.4698-.4697-1.0317-.837-1.6505-1.0788-.6187-.2418-1.2808-.3528-1.9446-.3261-.6657-.0345-1.3313.0712-1.9535.3103-.6223.2391-1.1874.6062-1.6587 1.0775-.4714.4714-.8385 1.0365-1.0776 1.6587-.239.6223-.3447 1.2878-.3102 1.9535v1h-1c-.1336-.0088-.2676.011-.3929.0581-.1254.0472-.2392.1205-.3339.2152-.0946.0947-.168.2085-.2151.3338-.0472.1254-.067.2593-.0581.3929v10c-.0089.1336.0109.2676.0581.3929.0471.1254.1205.2392.2151.3339.0947.0946.2085.168.3339.2151.1253.0472.2593.067.3929.0581h12c.1336.0089.2675-.0109.3929-.0581.1253-.0471.2391-.1205.3338-.2151.0947-.0947.168-.2085.2152-.3339.0471-.1253.0669-.2593.0581-.3929v-10c.0088-.1336-.011-.2675-.0581-.3929-.0472-.1253-.1205-.2391-.2152-.3338s-.2085-.168-.3338-.2152c-.1254-.0471-.2593-.0669-.3929-.0581zm-9-1c-.0201-.3992.0438-.7983.1874-1.1713.1437-.3731.364-.7119.6466-.9946.2827-.2827.6215-.503.9946-.6466.3731-.1437.7721-.2075 1.1714-.1875.3992-.02.7983.0438 1.1714.1875.373.1436.7118.3639.9945.6466s.503.6215.6466.9946c.1437.373.2075.7721.1875 1.1713v1h-6zm8 11h-10v-8h10z"/><path d="m19 22c-.1336-.0089-.2676.0109-.3929.0581-.1254.0471-.2392.1205-.3339.2151-.0946.0947-.168.2085-.2151.3339-.0472.1253-.067.2593-.0581.3929v2c0 .2652.1053.5195.2929.7071.1875.1875.4419.2929.7071.2929s.5195-.1054.7071-.2929c.1875-.1876.2929-.4419.2929-.7071v-2c.0088-.1336-.011-.2676-.0581-.3929-.0472-.1254-.1205-.2392-.2152-.3339-.0947-.0946-.2085-.168-.3338-.2151-.1254-.0472-.2593-.067-.3929-.0581z"/></g></svg>

<svg width="32" height="32" viewBox="0 0 32 32" fill="none" xmlns="http://www.w3.org/2000/svg">
<path d="M6.5 14H9.5C9.63261 14 9.75979 14.0527 9.85355 14.1464C9.94732 14.2402 10 14.3674 10 14.5V15.5C10 15.6326 9.94732 15.7598 9.85355 15.8536C9.75979 15.9473 9.63261 16 9.5 16H6.5C6.36739 16 6.24021 15.9473 6.14645 15.8536C6.05268 15.7598 6 15.6326 6 15.5V14.5C6 14.3674 6.05268 14.2402 6.14645 14.1464C6.24021 14.0527 6.36739 14 6.5 14V14ZM27.5 2H4.5C3.83696 2 3.20107 2.26339 2.73223 2.73223C2.26339 3.20107 2 3.83696 2 4.5V17.5C2 18.163 2.26339 18.7989 2.73223 19.2678C3.20107 19.7366 3.83696 20 4.5 20H9C9.26522 20 9.51957 19.8946 9.70711 19.7071C9.89464 19.5196 10 19.2652 10 19C10 18.7348 9.89464 18.4804 9.70711 18.2929C9.51957 18.1054 9.26522 18 9 18H4.5C4.36739 18 4.24021 17.9473 4.14645 17.8536C4.05268 17.7598 4 17.6326 4 17.5V10H28V19C28 19.2652 28.1054 19.5196 28.2929 19.7071C28.4804 19.8946 28.7348 20 29 20C29.2652 20 29.5196 19.8946 29.7071 19.7071C29.8946 19.5196 30 19.2652 30 19V4.5C30 3.83696 29.7366 3.20107 29.2678 2.73223C28.7989 2.26339 28.163 2 27.5 2V2ZM28 6H4V4.5C3.99558 4.4332 4.00548 4.36622 4.02905 4.30355C4.05261 4.24088 4.08929 4.18398 4.13663 4.13663C4.18398 4.08929 4.24088 4.05261 4.30355 4.02905C4.36622 4.00548 4.4332 3.99558 4.5 4H27.5C27.5668 3.99558 27.6338 4.00548 27.6964 4.02905C27.7591 4.05261 27.816 4.08929 27.8634 4.13663C27.9107 4.18398 27.9474 4.24088 27.971 4.30355C27.9945 4.36622 28.0044 4.4332 28 4.5V6Z" fill="#394762"/>
<path d="M25 18H24V17C24.0268 16.3363 23.9158 15.6741 23.674 15.0554C23.4322 14.4366 23.0648 13.8747 22.5951 13.4049C22.1253 12.9352 21.5634 12.5679 20.9446 12.3261C20.3259 12.0843 19.6638 11.9733 19 12C18.3343 11.9655 17.6687 12.0712 17.0465 12.3103C16.4242 12.5494 15.8591 12.9165 15.3878 13.3878C14.9164 13.8592 14.5493 14.4243 14.3102 15.0465C14.0712 15.6688 13.9655 16.3343 14 17V18H13C12.8664 17.9912 12.7324 18.011 12.6071 18.0581C12.4817 18.1053 12.3679 18.1786 12.2732 18.2733C12.1786 18.368 12.1052 18.4818 12.0581 18.6071C12.0109 18.7325 11.9911 18.8664 12 19V29C11.9911 29.1336 12.0109 29.2676 12.0581 29.3929C12.1052 29.5183 12.1786 29.6321 12.2732 29.7268C12.3679 29.8214 12.4817 29.8948 12.6071 29.9419C12.7324 29.9891 12.8664 30.0089 13 30H25C25.1336 30.0089 25.2675 29.9891 25.3929 29.9419C25.5182 29.8948 25.632 29.8214 25.7267 29.7268C25.8214 29.6321 25.8947 29.5183 25.9419 29.3929C25.989 29.2676 26.0088 29.1336 26 29V19C26.0088 18.8664 25.989 18.7325 25.9419 18.6071C25.8947 18.4818 25.8214 18.368 25.7267 18.2733C25.632 18.1786 25.5182 18.1053 25.3929 18.0581C25.2675 18.011 25.1336 17.9912 25 18V18ZM16 17C15.9799 16.6008 16.0438 16.2017 16.1874 15.8287C16.3311 15.4556 16.5514 15.1168 16.834 14.8341C17.1167 14.5514 17.4555 14.3311 17.8286 14.1875C18.2017 14.0438 18.6007 13.98 19 14C19.3992 13.98 19.7983 14.0438 20.1714 14.1875C20.5444 14.3311 20.8832 14.5514 21.1659 14.8341C21.4486 15.1168 21.6689 15.4556 21.8125 15.8287C21.9562 16.2017 22.02 16.6008 22 17V18H16V17ZM24 28H14V20H24V28Z" fill="#394762"/>
<path d="M19 22C18.8664 21.9911 18.7324 22.0109 18.6071 22.0581C18.4817 22.1052 18.3679 22.1786 18.2732 22.2732C18.1786 22.3679 18.1052 22.4817 18.0581 22.6071C18.0109 22.7324 17.9911 22.8664 18 23V25C18 25.2652 18.1053 25.5195 18.2929 25.7071C18.4804 25.8946 18.7348 26 19 26C19.2652 26 19.5195 25.8946 19.7071 25.7071C19.8946 25.5195 20 25.2652 20 25V23C20.0088 22.8664 19.989 22.7324 19.9419 22.6071C19.8947 22.4817 19.8214 22.3679 19.7267 22.2732C19.632 22.1786 19.5182 22.1052 19.3929 22.0581C19.2675 22.0109 19.1336 21.9911 19 22V22Z" fill="#394762"/>
</svg>
